X: 1739
T: Cooney's Hornpipe
R: hornpipe
B: O'Neill's 1850 #1739
O: J.O'Neill
Z: Bob Safranek, rjs@gsp.org
Z: A.LEE WORMAN
N: Compacted by using labels and play order [JC]
P: Play ABAB CBCB
M: 2/4
L: 1/16
K: G
"^A"[|] D2  | G2GF GBdB | A^GAB cdef | gfgf ecAG | FGAF DEFD |]
"^B"[|        GFEF GBdB | A^GAB cdef | gfgf ecAF | G2G2 G2   |]
"^C"|: (Bc) | dedc Bcdf | efed ^cdef | gfgf ecAG | FGAF DEFD |]
